icons/midnadark/mimetypes/16/text-x-install.svg

<?xml version="1.0" encoding="UTF-8" standalone="no"?>
<!-- Created with Inkscape (http://www.inkscape.org/) -->

<svg
   xmlns:sketch="http://www.bohemiancoding.com/sketch/ns"
   xmlns:osb="http://www.openswatchbook.org/uri/2009/osb"
   xmlns:dc="http://purl.org/dc/elements/1.1/"
   xmlns:cc="http://creativecommons.org/ns#"
   xmlns:rdf="http://www.w3.org/1999/02/22-rdf-syntax-ns#"
   xmlns:svg="http://www.w3.org/2000/svg"
   xmlns="http://www.w3.org/2000/svg"
   xmlns:sodipodi="http://sodipodi.sourceforge.net/DTD/sodipodi-0.dtd"
   xmlns:inkscape="http://www.inkscape.org/namespaces/inkscape"
   width="16"
   height="16"
   id="svg2"
   version="1.1"
   inkscape:version="0.91 r13725"
   viewBox="0 0 16 16"
   sodipodi:docname="text-x-install.svg">
  <defs
     id="defs4">
    <linearGradient
       osb:paint="gradient"
       id="linearGradient4207">
      <stop
         id="stop3371"
         offset="0"
         style="stop-color:#3498db;stop-opacity:1;" />
      <stop
         id="stop3373"
         offset="1"
         style="stop-color:#3498db;stop-opacity:0;" />
    </linearGradient>
  </defs>
  <sodipodi:namedview
     id="base"
     pagecolor="#9c9c9c"
     bordercolor="#666666"
     borderopacity="1.0"
     inkscape:pageopacity="0"
     inkscape:pageshadow="2"
     inkscape:zoom="11.2"
     inkscape:cx="-32.927712"
     inkscape:cy="7.078629"
     inkscape:document-units="px"
     inkscape:current-layer="g4201"
     showgrid="false"
     inkscape:showpageshadow="false"
     borderlayer="true"
     inkscape:window-width="1366"
     inkscape:window-height="687"
     inkscape:window-x="0"
     inkscape:window-y="0"
     inkscape:window-maximized="1"
     units="px"
     inkscape:snap-bbox="true"
     inkscape:object-nodes="true"
     showguides="true">
    <inkscape:grid
       type="xygrid"
       id="grid4101" />
    <sodipodi:guide
       position="2,14.000017"
       orientation="12,0"
       id="guide4071" />
    <sodipodi:guide
       position="2,2.0000174"
       orientation="0,12"
       id="guide4073" />
    <sodipodi:guide
       position="14,2.0000174"
       orientation="-12,0"
       id="guide4075" />
    <sodipodi:guide
       position="14,14.000017"
       orientation="0,-12"
       id="guide4077" />
  </sodipodi:namedview>
  <metadata
     id="metadata7">
    <rdf:RDF>
      <cc:Work
         rdf:about="">
        <dc:format>image/svg+xml</dc:format>
        <dc:type
           rdf:resource="http://purl.org/dc/dcmitype/StillImage" />
        <dc:title />
      </cc:Work>
    </rdf:RDF>
  </metadata>
  <g
     inkscape:label="Capa 1"
     inkscape:groupmode="layer"
     id="layer1"
     transform="translate(0,-1036.3622)">
    <g
       transform="translate(-412.88298,512.00351)"
       id="layer1-4"
       inkscape:label="Capa 1">
      <g
         style="fill:#ffffff;fill-opacity:1"
         inkscape:label="Capa 1"
         id="layer1-7"
         transform="translate(392.57143,-514.5642)" />
      <g
         transform="translate(341.79698,500.25245)"
         id="g4240">
        <g
           transform="translate(-392.98822,-511.27795)"
           id="layer1-1"
           inkscape:label="Capa 1"
           inkscape:transform-center-x="5.4653607"
           inkscape:transform-center-y="-9.4924686">
          <g
             transform="translate(462.62403,-499.75327)"
             id="layer1-99"
             inkscape:label="Capa 1">
            <g
               inkscape:label="Capa 1"
               id="layer1-69"
               transform="matrix(0.81522607,0,0,0.81522607,-328.41705,612.76049)">
              <g
                 transform="translate(392.57143,-514.5642)"
                 id="layer1-7-0"
                 inkscape:label="Capa 1"
                 style="fill:#ffffff;fill-opacity:1" />
              <g
                 id="g4240-2"
                 transform="translate(341.79698,500.25245)">
                <g
                   inkscape:transform-center-y="-9.4924686"
                   inkscape:transform-center-x="5.4653607"
                   inkscape:label="Capa 1"
                   id="layer1-1-9"
                   transform="translate(-392.98822,-511.27795)">
                  <g
                     id="layer1-3"
                     inkscape:label="Capa 1"
                     transform="translate(0.41988239,0.03484499)">
                    <g
                       inkscape:transform-center-y="-9.4924686"
                       inkscape:transform-center-x="5.4653607"
                       inkscape:label="Capa 1"
                       id="layer1-9"
                       transform="translate(-4.9074814,-7.6656037)">
                      <g
                         inkscape:label="Capa 1"
                         id="layer1-8"
                         transform="matrix(0.53861909,0,0,0.53861909,252.9433,261.18451)">
                        <g
                           id="g4447"
                           transform="matrix(0.65762761,0,0,0.65762761,163.45346,180.49688)">
                          <g
                             id="g4201"
                             transform="matrix(1.19667,0,0,1.19667,-66.25568,-108.59327)">
                            <g
                               transform="matrix(0.75,0,0,0.75,53.917114,140.7942)"
                               id="layer1-6"
                               inkscape:label="Capa 1"
                               style="fill:#ffffff;fill-opacity:1">
                              <g
                                 transform="translate(-51.525445,5.4558218)"
                                 inkscape:label="Capa 1"
                                 id="layer1-4-3"
                                 style="fill:#ffffff;fill-opacity:1">
                                <g
                                   id="layer1-3-8"
                                   inkscape:label="Capa 1"
                                   transform="translate(-34.965532,2.4832225)"
                                   style="fill:#ffffff;fill-opacity:1" />
                              </g>
                              <g
                                 transform="translate(50.777056,-5.4014337)"
                                 id="g4403"
                                 style="fill:#ffffff;fill-opacity:1">
                                <path
                                   style="opacity:1;fill:#ffffff;fill-opacity:1;stroke:none;stroke-width:0.2;stroke-linecap:round;stroke-linejoin:round;stroke-miterlimit:4;stroke-dasharray:none;stroke-opacity:1"
                                   d="M 0.56835938,1.9628906 C 0.25360354,1.9628906 0,2.2164942 0,2.53125 l 0,10.9375 c 0,0.314756 0.25360354,0.568359 0.56835938,0.568359 l 14.86328162,0 C 15.746396,14.037109 16,13.783506 16,13.46875 L 16,2.53125 C 16,2.2164942 15.746396,1.9628906 15.431641,1.9628906 l -14.86328162,0 z M 5.6542969,6.3769531 c 0.1399049,0 0.2577928,0.048809 0.3554687,0.1464844 L 7.9335938,8.4472656 9.8535156,6.5234375 c 0.1029242,-0.097676 0.2240964,-0.1464844 0.3613284,-0.1464844 0.139905,0 0.257793,0.048809 0.355468,0.1464844 l 0.296876,0.3007813 c 0.100251,0.095052 0.15039,0.2148442 0.15039,0.3574218 0,0.1425777 -0.05009,0.260417 -0.15039,0.3554688 L 8.2910156,10.119141 c -0.097676,0.09768 -0.2175169,0.146484 -0.3574218,0.146484 -0.1372323,0 -0.2564509,-0.04881 -0.359375,-0.146484 L 4.9960938,7.5371094 C 4.8984178,7.4394821 4.8496094,7.3215456 4.8496094,7.1816406 c 0,-0.1398563 0.048808,-0.2597459 0.1464844,-0.3574218 L 5.2929688,6.5234375 C 5.3958929,6.4257616 5.5170646,6.3769531 5.6542969,6.3769531 Z"
                                   transform="matrix(2.8939149,0,0,2.8939149,334.23404,507.44506)"
                                   id="rect4195"
                                   inkscape:connector-curvature="0" />
                              </g>
                            </g>
                            <g
                               id="chevron18"
                               sketch:type="MSLayerGroup"
                               transform="matrix(0,0.14062974,-0.14062974,0,368.70826,529.99419)"
                               style="fill:#818a93;fill-opacity:1" />
                          </g>
                        </g>
                      </g>
                    </g>
                  </g>
                </g>
              </g>
            </g>
          </g>
        </g>
      </g>
    </g>
  </g>
</svg>

<svg xmlns="http://www.w3.org/2000/svg" viewBox="0 0 16 16"><path d="m.568 1.963c-.315 0-.568.254-.568.568v10.938c0 .315.254.568.568.568h14.863c.315 0 .568-.254.568-.568v-10.938c0-.315-.254-.568-.568-.568h-14.863m5.086 4.414c.14 0 .258.049.355.146l1.924 1.924 1.92-1.924c.103-.098.224-.146.361-.146.14 0 .258.049.355.146l.297.301c.1.095.15.215.15.357 0 .143-.05.26-.15.355l-2.576 2.582c-.098.098-.218.146-.357.146-.137 0-.256-.049-.359-.146l-2.578-2.582c-.098-.098-.146-.216-.146-.355 0-.14.049-.26.146-.357l.297-.301c.103-.098.224-.146.361-.146" transform="matrix(.74999 0 0 .74999 1.989 2.01)" fill="#fff"/></svg>
